ui/StatusQ/src/assets/img/icons/file.svg

<svg fill="none" height="24" viewBox="0 0 24 24" width="24" xmlns="http://www.w3.org/2000/svg"><path clip-rule="evenodd" d="m18.7883 6.37753-3.3382-3.24551c-.7467-.72591-1.747-1.13202-2.7883-1.13202h-4.6618c-2.20914 0-4 1.79086-4 4v12c0 2.2091 1.79086 4 4 4h8c2.2091 0 4-1.7909 4-4v-8.75449c0-1.0804-.437-2.11486-1.2117-2.86798zm-2.7883 14.12247h-8c-1.38071 0-2.5-1.1193-2.5-2.5v-12c0-1.38071 1.11929-2.5 2.5-2.5h4.6618c.1137 0 .2267.00776.3382.02298v4.47702c0 1.10457.8954 2 2 2h3.5v8c0 1.3807-1.1193 2.5-2.5 2.5zm2.3863-12c-.123-.39342-.3425-.75421-.6436-1.04698l-3.2427-3.15262v3.6996c0 .27614.2239.5.5.5z" fill="#000" fill-rule="evenodd"/></svg>

<svg width="24" height="24" viewBox="0 0 24 24" fill="none" xmlns="http://www.w3.org/2000/svg">
<path fill-rule="evenodd" clip-rule="evenodd" d="M18.7883 6.37753L15.4501 3.13202C14.7034 2.40611 13.7031 2 12.6618 2H8C5.79086 2 4 3.79086 4 6V18C4 20.2091 5.79086 22 8 22H16C18.2091 22 20 20.2091 20 18V9.24551C20 8.16511 19.563 7.13065 18.7883 6.37753ZM16 20.5H8C6.61929 20.5 5.5 19.3807 5.5 18V6C5.5 4.61929 6.61929 3.5 8 3.5H12.6618C12.7755 3.5 12.8885 3.50776 13 3.52298V8C13 9.10457 13.8954 10 15 10H18.5V18C18.5 19.3807 17.3807 20.5 16 20.5ZM18.3863 8.5C18.2633 8.10658 18.0438 7.74579 17.7427 7.45302L14.5 4.3004V8C14.5 8.27614 14.7239 8.5 15 8.5H18.3863Z" fill="black"/>
</svg>
